X:85
T:Hornpipe
O:No 85 Wm Clarke MS  Feltwell, Norfolk
I:abc2nwc
M:4/4
L:1/8
K:D
A|FD FA df af|ge fd dc BA| (3(GAB)  (3(GAB)  (3(FGA)  (3(FGA)|EF GA GF ED|
FD FA df af|ge fd dc BA|af df ge dc|d2d2d2:|
|:d2|df fd ce ec|Bd dB BA GF| (3(GAB)  (3(GAB)  (3(FGA)  (3(FGA)|EF GA GF ED|
FD FA df af|ge fd dc BA|af df ge dc|d2d2d2:|

